logo/google-meet.svg

<?xml version="1.0" encoding="UTF-8"?>
<svg width="256px" height="211px" viewBox="0 0 256 211" version="1.1" xmlns="http://www.w3.org/2000/svg" xmlns:xlink="http://www.w3.org/1999/xlink" preserveAspectRatio="xMidYMid">
    <g>
        <polygon fill="#00832D" points="144.822496 105.321856 169.778926 133.848796 203.341343 155.294133 209.178931 105.50196 203.341343 56.8331137 169.136495 75.6715889"></polygon>
        <path d="M0.000557021739,150.659712 L0.000557021739,193.089915 C0.000557021739,202.77838 7.86384724,210.643527 17.5541688,210.643527 L59.9843714,210.643527 L68.7704609,178.585069 L59.9843714,150.659712 L30.8744153,141.873623 L0.000557021739,150.659712 Z" fill="#0066DA"></path>
        <polygon fill="#E94235" points="59.9838143 9.9475983e-14 0 59.9838143 30.875715 68.7494798 59.9838143 59.9838143 68.6102243 32.4390893"></polygon>
        <polygon fill="#2684FC" points="0.000557021739 150.679394 59.9843714 150.679394 59.9843714 59.9832573 0.000557021739 59.9832573"></polygon>
        <path d="M241.658683,25.3977775 L203.341157,56.8342278 L203.341157,155.29339 L241.818362,186.852385 C247.577967,191.364261 256.003849,187.251584 256.003849,179.930462 L256.003849,32.1785888 C256.003849,24.7757699 247.377439,20.6835169 241.658683,25.3977775" fill="#00AC47"></path>
        <path d="M144.822496,105.321856 L144.822496,150.659712 L59.9843714,150.659712 L59.9843714,210.643527 L185.787731,210.643527 C195.478053,210.643527 203.341343,202.77838 203.341343,193.089915 L203.341343,155.294133 L144.822496,105.321856 Z" fill="#00AC47"></path>
        <path d="M185.787731,0 L59.9843714,0 L59.9843714,59.9838143 L144.822496,59.9838143 L144.822496,105.32167 L203.341343,56.832928 L203.341343,17.5536117 C203.341343,7.86329022 195.478053,0 185.787731,0" fill="#FFBA00"></path>
    </g>
</svg>

<svg viewBox="0 0 256 211" xmlns="http://www.w3.org/2000/svg"><path fill="#00832D" d="M144.82 105.32l24.95 28.52 33.56 21.44 5.83-49.8 -5.84-48.67 -34.21 18.83Z"/><path fill="#0066DA" d="M0 150.65v42.43c0 9.68 7.86 17.55 17.55 17.55h42.43l8.78-32.06 -8.79-27.93 -29.11-8.79 -30.88 8.78Z"/><path fill="#E94235" d="M59.98 0L-.01 59.98l30.87 8.76 29.1-8.77 8.62-27.55Z"/><path fill="#2684FC" d="M0 150.67l59.98 0 0-90.7 -59.99-.001Z"/><g fill="#00AC47"><path d="M241.65 25.39l-38.32 31.43v98.45l38.47 31.55c5.75 4.51 14.18.39 14.18-6.93V32.13c0-7.41-8.63-11.5-14.35-6.79"/><path d="M144.82 105.32v45.33H59.98v59.98h125.8c9.69 0 17.55-7.87 17.55-17.56v-37.8l-58.52-49.98Z"/></g><path fill="#FFBA00" d="M185.78 0H59.97v59.98h84.83v45.33l58.51-48.49V17.54c0-9.7-7.87-17.56-17.56-17.56"/></svg>
